public/icons/tech-stack/nextjs.svg

<svg width="111" height="23" viewBox="0 0 111 23" fill="none" xmlns="http://www.w3.org/2000/svg">
<g clip-path="url(#clip0_34_281)">
<path d="M93.1236 0.00950962V3.6497H85.454V22.801H81.6188V3.64992H73.7894V0.00950962H93.1236ZM93.9858 20.6299C94.2559 20.6299 94.4922 20.729 94.6923 20.9276C94.8952 21.1259 94.9963 21.3637 94.9991 21.6406C94.9986 21.8223 94.9491 22.0003 94.856 22.1552C94.7647 22.3081 94.6369 22.4348 94.4844 22.5234C94.3338 22.6153 94.1613 22.6631 93.9858 22.6619C93.7048 22.6619 93.4659 22.5626 93.266 22.3642C93.0659 22.1656 92.9668 21.9252 92.9694 21.6406C92.9671 21.3637 93.0659 21.1259 93.266 20.9276C93.4659 20.729 93.7048 20.6299 93.9858 20.6299ZM17.9759 22.801L3.83514 4.87158V22.7917H0V0H4.7936L22.659 22.6305L22.6592 3.64992L22.6577 0.00950962H41.9916V3.6497H26.4941V9.50586H38.9573V13.1463H26.4941V19.1608H41.9918V22.801H17.9759ZM54.2827 13.1115L56.796 16.299L51.646 22.8279H46.6131L54.2827 13.1115ZM51.646 0.0190192L58.1347 8.23931L64.6031 0.0442308L69.6219 0.0364904L60.6474 11.4226L69.6365 22.8105H64.6031L46.6274 0.0190192H51.646ZM100.531 13.0605H102.23V19.7393C102.228 20.353 102.098 20.8778 101.843 21.3195C101.586 21.7607 101.23 22.0977 100.773 22.3354C100.318 22.5703 99.7853 22.6906 99.1798 22.6906C98.6263 22.6906 98.1303 22.5889 97.6885 22.3903C97.2466 22.1917 96.8961 21.894 96.6387 21.5021C96.3786 21.1105 96.2513 20.6219 96.2513 20.037H97.9536C97.9562 20.2929 98.0132 20.5147 98.1223 20.7004C98.2297 20.8838 98.3867 21.0315 98.5745 21.1259C98.7692 21.2255 98.9929 21.275 99.2446 21.275C99.5178 21.275 99.7515 21.2175 99.9412 21.0998C100.131 20.9848 100.276 20.8126 100.378 20.5828C100.476 20.3554 100.528 20.0735 100.531 19.7391V13.0605ZM109.222 15.6723C109.181 15.2676 108.999 14.9513 108.682 14.7269C108.362 14.4995 107.949 14.3874 107.443 14.3874C107.087 14.3874 106.78 14.4422 106.526 14.5493C106.271 14.659 106.074 14.8051 105.938 14.9907C105.803 15.176 105.736 15.3877 105.73 15.6254C105.73 15.8238 105.777 15.9963 105.868 16.1398C105.962 16.2903 106.089 16.4164 106.24 16.5083C106.403 16.6129 106.577 16.6978 106.759 16.7615C106.952 16.8294 107.144 16.8869 107.336 16.934L108.222 17.156C108.578 17.2396 108.924 17.3517 109.254 17.4955C109.584 17.6366 109.883 17.8168 110.145 18.0335C110.407 18.2503 110.615 18.5115 110.769 18.8171C110.922 19.1227 111 19.4806 111 19.8932C111 20.4494 110.86 20.938 110.576 21.361C110.293 21.7817 109.885 22.1107 109.35 22.3485C108.817 22.5836 108.173 22.7037 107.414 22.7037C106.681 22.7037 106.042 22.5887 105.504 22.3589C104.964 22.1318 104.543 21.7971 104.239 21.3584C103.935 20.9196 103.771 20.3842 103.748 19.7548H105.432C105.455 20.0839 105.559 20.3581 105.736 20.5801C105.915 20.7995 106.149 20.9614 106.435 21.0711C106.723 21.1784 107.045 21.2332 107.401 21.2332C107.773 21.2332 108.1 21.1757 108.383 21.0634C108.664 20.951 108.885 20.7944 109.043 20.5905C109.204 20.3893 109.285 20.1518 109.288 19.8802C109.285 19.632 109.212 19.4257 109.072 19.2636C108.929 19.1017 108.731 18.9659 108.479 18.8562C108.225 18.7465 107.929 18.6473 107.591 18.5612L106.515 18.2843C105.738 18.0831 105.122 17.7777 104.673 17.3674C104.221 16.9574 103.997 16.4143 103.997 15.7324C103.997 15.1736 104.148 14.6824 104.452 14.2618C104.753 13.8416 105.167 13.5149 105.689 13.2825C106.214 13.0474 106.806 12.9324 107.466 12.9324C108.137 12.9324 108.724 13.0474 109.231 13.2825C109.737 13.5149 110.135 13.8387 110.423 14.2514C110.711 14.6643 110.862 15.1369 110.87 15.6723H109.222Z" fill="white"/>
</g>
<defs>
<clipPath id="clip0_34_281">
<rect width="111" height="23" fill="white"/>
</clipPath>
</defs>
</svg>

<svg xmlns="http://www.w3.org/2000/svg" width="111" height="23" fill="none" xmlns:v="https://vecta.io/nano"><g clip-path="url(#A)"><path d="M93.124.01v3.64h-7.67v19.151h-3.835V3.65h-7.829V.01h19.334zm.862 20.62a.97.97 0 0 1 .707.298c.203.198.304.436.307.713-.001.182-.05.36-.143.515s-.219.28-.372.368-.323.14-.499.139c-.281 0-.52-.099-.72-.298s-.299-.439-.297-.724c-.002-.277.097-.515.297-.713a.98.98 0 0 1 .72-.298zm-76.01 2.171L3.835 4.872v17.92H0V0h4.794l17.865 22.631V3.65L22.658.01h19.334v3.64H26.494v5.856h12.463v3.64H26.494v6.014h15.498v3.64H17.976zm36.307-9.689l2.513 3.188-5.15 6.529h-5.033l7.67-9.716zM51.646.019l6.489 8.22L64.603.044l5.019-.008-8.974 11.386 8.989 11.388h-5.033L46.627.019h5.019zm48.885 13.041h1.699v6.679c-.002.614-.132 1.139-.387 1.58s-.613.778-1.07 1.016-.988.355-1.593.355c-.553 0-1.049-.102-1.491-.3s-.792-.496-1.05-.888-.387-.88-.387-1.465h1.702c.003.256.06.478.169.663s.264.331.452.426c.195.1.418.149.67.149a1.3 1.3 0 0 0 .697-.175c.19-.115.335-.287.437-.517s.15-.509.153-.844v-6.679zm8.691 2.612a1.26 1.26 0 0 0-.54-.945c-.32-.227-.733-.34-1.239-.34-.356 0-.663.055-.917.162s-.452.256-.588.441-.202.397-.208.635c0 .198.047.371.138.514.094.15.221.277.372.368.163.105.337.19.519.253l.577.172.886.222c.356.084.702.196 1.032.34s.629.321.891.538a2.42 2.42 0 0 1 .624.784c.153.306.231.663.231 1.076 0 .556-.14 1.045-.424 1.468s-.691.75-1.226.988-1.177.355-1.936.355c-.733 0-1.372-.115-1.91-.345s-.961-.562-1.265-1-.468-.974-.491-1.604h1.684c.023.329.127.603.304.825s.413.381.699.491a2.75 2.75 0 0 0 .966.162c.372 0 .699-.058.982-.17s.502-.269.66-.473.242-.439.245-.71a.93.93 0 0 0-.216-.617 1.66 1.66 0 0 0-.593-.407 5.96 5.96 0 0 0-.888-.295l-1.076-.277c-.777-.201-1.393-.507-1.842-.917s-.676-.953-.676-1.635c0-.559.151-1.05.455-1.471s.715-.747 1.237-.979 1.117-.35 1.777-.35c.671 0 1.258.115 1.765.35s.904.556 1.192.969a2.49 2.49 0 0 1 .447 1.421h-1.648z" fill="#fff"/></g><defs><clipPath id="A"><path fill="#fff" d="M0 0h111v23H0z"/></clipPath></defs></svg>
